X:1
T:Les Compagnons de la Marjolaine
T:Les Compagnons de la Marjolaine
T:Chanson Flamande
T:Halfdan Kjerulf
C:Halfdan Kjerulf
%%score [ 1 2 3 4 ]
L:1/8
Q:1/4=116
M:6/8
K:A
V:1 treble-8 nm="T1"
V:2 treble-8 nm="T2"
V:3 bass nm="B1"
V:4 bass nm="B2"
V:1
"^Allegretto"!f! B c d | c d e d e f | e3 B c d | c d e d c B | A2 c c2 c | c3!fine! ||!mf! E E E | %7
w: Tra la la|la la la la la la|la Tra la la|la la la la la la|la tra la la|la|1.Qu'est- ce- qui|
w: ||||||2.Ce sout les|
w: ||||||3.Que de- man-|
w: ||||||4.U- ne fil-|
 A2 A B2 B | c3 c2 B | A B c B2 A | ^G2 E E E E | A2 A B2 B | c3 !>!d3 | e3!p! !>!B c B | %14
w: passe i- ci si|tard, Com- pag-|nons de la Mar- jo-|lai- ne, qu'est- ce- qui|passe i- ci si|tard, gai,|gai, des- sus le|
w: che- va- liers du|guêt, Com- pag-|nons de la Mar- jo-|lai- ne, ce sont les|che- va- liers du|guêt, gai,|gai, des- sus le|
w: dent ces ce- va-|liers, Com- pag-|nons de la Mar- jo-|lai- ne, que de- man-|dent ches che- va-|liers gai,|gai, des- sis le|
w: lette à ma- ri-|er, Com- pag-|nons de la Mar- jo-|lai- ne, u- ne fil-|lette à ma- ri-|er, gai,|gai, des- sus le|
 A3!D.C.! |] %15
w: quai?|
w: quai?|
w: quai?|
w: quai?|
V:2
!f! ^G A B | A B c B c d | c3 A A A | A B c B A ^G | A2 A A2 A | A3 ||!mf! E E E | A2 A ^G2 G | %8
w: Tra la la|la la la la la la|la Tra la la|la la la la la la|la tra la la|la|1.Qu'est- ce- qui|passe i- ci si|
w: ||||||2.Ce sout les|che- va- liers du|
w: ||||||3.Que de- man-|dent ces ce- va-|
w: ||||||4.U- ne fil-|lette à ma- ri-|
 A3 =G2 G | A A A A2 A | ^G2 E E E E | A2 A A2 ^G | A3 !>!B3 | !>!c3!p! e e e | c3 |] %15
w: tard, Com- pag-|nons de la Mar- jo-|lai- ne, qu'est- ce- qui|passe i- ci si|tard, gai,|gai, des- sus le|quai?|
w: guêt, Com- pag-|nons de la Mar- jo-|lai- ne, ce sont les|che- va- liers du|guêt, gai,|gai, des- sus le|quai?|
w: liers, Com- pag-|nons de la Mar- jo-|lai- ne, que de- man-|dent ches che- va-|liers gai,|gai, des- sis le|quai?|
w: er, Com- pag-|nons de la Mar- jo-|lai- ne, u- ne fil-|lette à ma- ri-|er, gai,|gai, des- sus le|quai?|
V:3
!f! E, E, E, | E, E, E, E, E, E, | E,3 F, E, D, | E, E, E, E, E, E, | A,2 E, E,2 E, | E,3 || %6
w: Tra la la|la la la la la la|la Tra la la|la la la la la la|la tra la la|la|
w: ||||||
w: ||||||
w: ||||||
!mf! E, E, E, | E,2 E, E,2 E, | E,3 E,2 E, | F, F, F, F,2 =F, | ^G,2 B, E, E, E, | E,2 E, E,2 E, | %12
w: 1.Qu'est- ce- qui|passe i- ci si|tard, Com- pag-|nons de la Mar- jo-|lai- ne, qu'est- ce- qui|passe i- ci si|
w: 2.Ce sout les|che- va- liers du|guêt, Com- pag-|nons de la Mar- jo-|lai- ne, ce sont les|che- va- liers du|
w: 3.Que de- man-|dent ces ce- va-|liers, Com- pag-|nons de la Mar- jo-|lai- ne, que de- man-|dent ches che- va-|
w: 4.U- ne fil-|lette à ma- ri-|er, Com- pag-|nons de la Mar- jo-|lai- ne, u- ne fil-|lette à ma- ri-|
 E,3 !>!A,3 | !>!=G,3!p! ^G, G, G, | A,3 |] %15
w: tard, gai,|gai, des- sus le|quai?|
w: guêt, gai.|gai, des- sus le|quai?|
w: liers gai,|gai, des- sis le|quai?|
w: er, gai,|gai, des- sus le|quai?|
V:4
!f! E, E, E, | E, E, E, E, E, E, | E,3 F, E, D, | E, E, E, E, E, E, | A,2 A,, A,,2 A,, | A,,3 || %6
w: Tra la la|la la la la la la|la Tra la la|la la la la la la|la tra la la|la|
w: ||||||
w: ||||||
w: ||||||
!mf! E, E, E, | C,2 C, E,2 E, | A,,3 C,2 C, | F, F, F, D,2 ^D, | E,2 ^G, E, E, D, | C,2 C, E,2 E, | %12
w: 1.Qu'est- ce- qui|passe i- ci si|tard, Com- pag-|nons de la Mar- jo-|lai- ne, qu'est- ce- qui|passe i- ci si|
w: 2.Ce sout les|che- va- liers du|guêt, Com- pag-|nons de la Mar- jo-|lai- ne, ce sont les|che- va- liers du|
w: 3.Que de- man-|dent ces ce- va-|liers, Com- pag-|nons de la Mar- jo-|lai- ne, que de- man-|dent ches che- va-|
w: 4.U- ne fil-|lette à ma- ri-|er, Com- pag-|nons de la Mar- jo-|lai- ne, u- ne fil-|lette à ma- ri-|
 A,,3 !>!F,3 | !>!C,3!p! E, E, E, | [A,,E,]3 |] %15
w: tard, gai,|gai, des- sus le|quai?|
w: guêt, gai,|gai, des- sus le|quai?|
w: liers gai,|gai, des- sis le|quai?|
w: er, gai,|gai, des- sus le|quai?|

